svgs/solid/brightness-low.svg

<svg xmlns="http://www.w3.org/2000/svg" viewBox="0 0 448 512"><!--! Font Awesome Pro 6.2.0 by @fontawesome - https://fontawesome.com License - https://fontawesome.com/license (Commercial License) Copyright 2022 Fonticons, Inc. --><path d="M256 80c0 17.7-14.3 32-32 32s-32-14.3-32-32s14.3-32 32-32s32 14.3 32 32zm64 176c0 53-43 96-96 96s-96-43-96-96s43-96 96-96s96 43 96 96zM224 464c-17.7 0-32-14.3-32-32s14.3-32 32-32s32 14.3 32 32s-14.3 32-32 32zM400 288c-17.7 0-32-14.3-32-32s14.3-32 32-32s32 14.3 32 32s-14.3 32-32 32zM16 256c0-17.7 14.3-32 32-32s32 14.3 32 32s-14.3 32-32 32s-32-14.3-32-32zM128 128c0 17.7-14.3 32-32 32s-32-14.3-32-32s14.3-32 32-32s32 14.3 32 32zM384 384c0 17.7-14.3 32-32 32s-32-14.3-32-32s14.3-32 32-32s32 14.3 32 32zm0-256c0 17.7-14.3 32-32 32s-32-14.3-32-32s14.3-32 32-32s32 14.3 32 32zM64 384c0-17.7 14.3-32 32-32s32 14.3 32 32s-14.3 32-32 32s-32-14.3-32-32z"/></svg>

<svg xmlns="http://www.w3.org/2000/svg" viewBox="0 0 448 512"><!--! Font Awesome Pro 6.1.2 by @fontawesome - https://fontawesome.com License - https://fontawesome.com/license (Commercial License) Copyright 2022 Fonticons, Inc. --><path d="M256 80C256 97.67 241.7 112 224 112C206.3 112 192 97.67 192 80C192 62.33 206.3 48 224 48C241.7 48 256 62.33 256 80zM320 256C320 309 277 352 224 352C170.1 352 128 309 128 256C128 202.1 170.1 160 224 160C277 160 320 202.1 320 256zM192 432C192 414.3 206.3 400 224 400C241.7 400 256 414.3 256 432C256 449.7 241.7 464 224 464C206.3 464 192 449.7 192 432zM400 288C382.3 288 368 273.7 368 256C368 238.3 382.3 224 400 224C417.7 224 432 238.3 432 256C432 273.7 417.7 288 400 288zM48 224C65.67 224 80 238.3 80 256C80 273.7 65.67 288 48 288C30.33 288 16 273.7 16 256C16 238.3 30.33 224 48 224zM128 128C128 145.7 113.7 160 96 160C78.33 160 64 145.7 64 128C64 110.3 78.33 96 96 96C113.7 96 128 110.3 128 128zM352 416C334.3 416 320 401.7 320 384C320 366.3 334.3 352 352 352C369.7 352 384 366.3 384 384C384 401.7 369.7 416 352 416zM384 128C384 145.7 369.7 160 352 160C334.3 160 320 145.7 320 128C320 110.3 334.3 96 352 96C369.7 96 384 110.3 384 128zM96 352C113.7 352 128 366.3 128 384C128 401.7 113.7 416 96 416C78.33 416 64 401.7 64 384C64 366.3 78.33 352 96 352z"/></svg>
